Sources/FrostedUI/Resources/Icons.xcassets/folderAdd32.imageset/folder-add-32.svg

<svg width="32" height="32" viewBox="0 0 32 32" fill="none" xmlns="http://www.w3.org/2000/svg" data-fui-icon="true">
  <path
    d="M8.93066 4C9.77272 4.00014 10.5584 4.42398 11.0205 5.12793L12.6084 7.54883C12.7932 7.8304 13.1076 7.99986 13.4443 8H28.25C29.7688 8 31 9.23122 31 10.75V17.25C31 17.6642 30.6642 18 30.25 18C29.8358 18 29.5 17.6642 29.5 17.25V10.75C29.5 10.0596 28.9404 9.5 28.25 9.5H13.4443C12.6023 9.49986 11.8166 9.07602 11.3545 8.37207L9.7666 5.95117C9.58182 5.6696 9.26743 5.50014 8.93066 5.5H3.75C3.05964 5.5 2.5 6.05964 2.5 6.75V25.25C2.5 25.9404 3.05964 26.5 3.75 26.5H20.25C20.6642 26.5 21 26.8358 21 27.25C21 27.6642 20.6642 28 20.25 28H3.75C2.23122 28 1 26.7688 1 25.25V6.75C1 5.23122 2.23122 4 3.75 4H8.93066ZM26 18C26.4142 18 26.75 18.3358 26.75 18.75V22.25H30.25C30.6642 22.25 31 22.5858 31 23C31 23.4142 30.6642 23.75 30.25 23.75H26.75V27.25C26.75 27.6642 26.4142 28 26 28C25.5858 28 25.25 27.6642 25.25 27.25V23.75H21.75C21.3358 23.75 21 23.4142 21 23C21 22.5858 21.3358 22.25 21.75 22.25H25.25V18.75C25.25 18.3358 25.5858 18 26 18Z"
    fill="currentColor"
  />
</svg>

<svg xmlns="http://www.w3.org/2000/svg" width="32" height="32" fill="none" data-fui-icon="true" viewBox="0 0 32 32"><path fill="currentColor" d="M8.93 4a2.5 2.5 0 0 1 2.09 1.128l1.588 2.42a1 1 0 0 0 .836.452H28.25A2.75 2.75 0 0 1 31 10.75v6.5a.75.75 0 0 1-1.5 0v-6.5c0-.69-.56-1.25-1.25-1.25H13.444a2.5 2.5 0 0 1-2.09-1.128l-1.587-2.42A1 1 0 0 0 8.93 5.5H3.75c-.69 0-1.25.56-1.25 1.25v18.5c0 .69.56 1.25 1.25 1.25h16.5a.75.75 0 0 1 0 1.5H3.75A2.75 2.75 0 0 1 1 25.25V6.75A2.75 2.75 0 0 1 3.75 4zM26 18a.75.75 0 0 1 .75.75v3.5h3.5a.75.75 0 0 1 0 1.5h-3.5v3.5a.75.75 0 0 1-1.5 0v-3.5h-3.5a.75.75 0 0 1 0-1.5h3.5v-3.5A.75.75 0 0 1 26 18"/></svg>
